X:1
T:Hungarian Rhapsody No. 2 (theme)
C:Franz Liszt (1811-1886)
M:4/4
L:1/8
Q:1/4=60
K:C#m
E2 |{G}A3 G F2 E2 | E3 D C2 D2 | E6 F2 | E8 |{G}A3 G F2 E2 | D3 E F2 D2 | C4 D2 E2 | C8 | E2 A2 {B}c3 B | A3 G F2 E2 | D3 E F3 D | C8 |]
